assets/images/task.svg

<svg xmlns="http://www.w3.org/2000/svg" xml:space="preserve" viewBox="0 0 20 20"><path d="M9.5 5h9c.8 0 1.5-.7 1.5-1.5S19.3 2 18.5 2h-9C8.7 2 8 2.7 8 3.5S8.7 5 9.5 5m9 3.5h-9C8.7 8.5 8 9.2 8 10s.7 1.5 1.5 1.5h9c.8 0 1.5-.7 1.5-1.5s-.7-1.5-1.5-1.5m0 6.5h-9c-.8 0-1.5.7-1.5 1.5S8.7 18 9.5 18h9c.8 0 1.5-.7 1.5-1.5s-.7-1.5-1.5-1.5M4.5 1 2.9 3.2l-.5-.5c-.5-.4-1.2-.4-1.6.1S.4 4 .9 4.5l2 1.9c.1.1.3.2.4.1.1 0 .3-.1.4-.2l2.7-3.9c.4-.5.3-1.2-.2-1.6C5.5.3 4.8.5 4.5 1m0 6L2.9 9.2l-.5-.5c-.5-.4-1.2-.4-1.6.1s-.4 1.2.1 1.7l2 1.9c.1.1.3.2.4.1.1 0 .3-.1.4-.2l2.7-3.9c.4-.5.3-1.2-.2-1.6-.7-.5-1.4-.3-1.7.2"/><circle cx="3.5" cy="16.5" r="2.5"/></svg>

<svg xmlns="http://www.w3.org/2000/svg" xmlns:xlink="http://www.w3.org/1999/xlink" id="Layer_1" x="0" y="0" version="1.1" viewBox="0 0 20 20" style="enable-background:new 0 0 20 20" xml:space="preserve"><g><path d="M9.5,5h9C19.3,5,20,4.3,20,3.5S19.3,2,18.5,2h-9C8.7,2,8,2.7,8,3.5S8.7,5,9.5,5z"/><path d="M18.5,8.5h-9C8.7,8.5,8,9.2,8,10s0.7,1.5,1.5,1.5h9c0.8,0,1.5-0.7,1.5-1.5S19.3,8.5,18.5,8.5z"/><path d="M18.5,15h-9C8.7,15,8,15.7,8,16.5S8.7,18,9.5,18h9c0.8,0,1.5-0.7,1.5-1.5S19.3,15,18.5,15z"/><path d="M4.5,1L2.9,3.2L2.4,2.7C1.9,2.3,1.2,2.3,0.8,2.8C0.4,3.3,0.4,4,0.9,4.5l2,1.9c0.1,0.1,0.3,0.2,0.4,0.1 c0.1,0,0.3-0.1,0.4-0.2l2.7-3.9c0.4-0.5,0.3-1.2-0.2-1.6C5.5,0.3,4.8,0.5,4.5,1z"/><path d="M4.5,7L2.9,9.2L2.4,8.7C1.9,8.3,1.2,8.3,0.8,8.8C0.4,9.3,0.4,10,0.9,10.5l2,1.9c0.1,0.1,0.3,0.2,0.4,0.1 c0.1,0,0.3-0.1,0.4-0.2l2.7-3.9c0.4-0.5,0.3-1.2-0.2-1.6C5.5,6.3,4.8,6.5,4.5,7z"/><circle cx="3.5" cy="16.5" r="2.5"/></g></svg>
